!!!COM: Vivaldi, Antonio Lucio
!!!CDT: 1678/03/04-1741/08/28
!!!OPR: 12 Sonatas for Violin and Basso continuo
!!!OTL: Sonata in G minor, op. @{OPS}, no. @{ONM} (@{SCT})
!!!OPS: 2
!!!ONM: 1
!!!OMV: 1. Preludio
!!!SCT: RV 27
!!!SCA: Antonio Vivaldi: Thematisch-systematisches Verzeichnis seiner Werke (Ryom-Verzeichnis)
!!!OMD: Andante
!!!key: g
**kern	**fb	**kern
*part2	*	*part1
*staff2	*	*staff1
*ICklav	*	*ICstr
*Icemba	*	*Ivioln
*I"Basso continuo	*	*I"Violino
*I'bc	*	*I'v
*>[A,A,B,B]	*>[A,A,B,B]	*>[A,A,B,B]
*>norep[A,B]	*>norep[A,B]	*>norep[A,B]
*>A	*>A	*>A
*clefF4	*	*clefG2
*k[b-]	*	*k[b-]
*g:	*	*g:
*M4/4	*	*M4/4
*met(c)	*	*met(c)
*MM50	*	*MM50
8r	.	8d/
=1	=1	=1
4r	.	4g/
8r	.	4a/
8D\	#	.
4G\	.	4b-y\
4A\	6#/	4cc\
=2	=2	=2
4B-y\	6	8dd\L
.	.	16cc\L
.	.	16b-y\JJ
4c\	-	8a\L
.	.	16b-y\L
.	.	16cc\JJ
8d\L	#	4.f#X/
16c\L	.	.
16B-y\JJ	.	.
8A\L	6#/	.
16B-y\L	.	16g/LL
16c\JJ	.	16a/JJ
=3	=3	=3
4.F#X\	6	8d/
.	5	4cc\
8F#y\	6 5	16dd\LL
.	.	16cc\JJ
8G\L	.	8b-y/L
8C\J	6 5 -	16a/L
.	.	16g/JJ
8D/L	5 4	8.f#X/Lt
8DD/J	#	.
.	.	16g/Jk
=4	=4	=4
8GG/L	.	4g/
16d\L	#	.
16c\JJ	.	.
8B-y\L	6	8r
8BB-y\J	.	16gg\LL
.	.	16ffn\JJ
8C\L	-	8ee-X\L
16c\L	.	8ee-y\J
16B-y\JJ	.	.
8A\L	5-r	8ee-y\L
8AA\J	6	16ff\L
.	.	16ee-X\JJ
!!LO:LB:g=original
=5	=5	=5
8BB-y\L	.	4dd\
16B-y\L	.	.
16A\JJ	.	.
8G/L	5	8r
8GG/J	6-r	16ee-X\LL
.	.	16dd\JJ
8AA\L	.	8cc\L
16A\L	.	8cc\J
16G\JJ	.	.
8F#X/L	5	8cc\L
8FF#X/J	6 5	16dd\L
.	.	16cc\JJ
=6	=6	=6
8GG\L	.	4b-y\
16G\L	.	.
16A\JJ	.	.
4B-y\	.	8r
.	.	16dd\LL
.	.	16ee\JJ
4A\	6	8ff\L
.	.	16gg\L
.	.	16aa\JJ
4G\	7	8bb-y\L
.	6	8bb-y\J
=7	=7	=7
8F\L	.	(8bb-y\LT
8F\	.	8aa\J)
8F\	.	8r
8D\J	.	8aa\
8B-y\L	7	8aa\L
8B-y\	.	8dd\
8B-y\	6	8gg\
8B-y\J	.	8gg\J
=8	=8	=8
8A\L	7	(8gg\LT
8A\	6	8ff\J)
8A\	.	8r
8D\J	.	8ff\
8G\L	7	8ff\L
8G\J	.	16gg\L
.	.	16ff\JJ
8G\L	6	8.ee\L
8G\J	.	.
.	.	16ee\Jk
=9	=9	=9
4C#X/	7 5	8ee\L
.	.	8a\J
4Cn/	6	8r
.	.	8aa\
4BBn/	7	8aa\L
.	.	8dd\J
8BB-X/L	6	8gg\L
16AA/L	.	16aa\L
16GG/JJ	.	16bb-y\JJ
!!LO:LB:g=original
=10	=10	=10
8AA\L	7 #	8cc#y\L
16F\L	6	16dd\L
16G\JJ	.	16ee\JJ
8A\L	5 4	8.ee\Lt
8AA\J	#	.
.	.	16dd\Jk
4.D\	.	4.dd\
=:|!|:	=:|!|:	=:|!|:
*>B	*>B	*>B
8r	.	16aa\LL
.	.	16gg\JJ
=11	=11	=11
4r	.	8ff#X\L
.	.	16gg\L
.	.	16aa\JJ
8r	.	8dd\L
16d\LL	#	8ff#X\J
16c\JJ	.	.
8Bn\L	6	8gg\L
16c\L	.	8g\J
16d\JJ	.	.
8G\L	n	8r
8Bn\J	.	16gg\LL
.	.	16ff\JJ
=12	=12	=12
8c\L	.	8ee\L
8C\J	.	16ff\L
.	.	16gg\JJ
8r	.	8cc\L
16c\LL	.	8ee\J
16B-X\JJ	.	.
8A\L	6	8ff\L
16B-y\L	.	8f\J
16c\JJ	.	.
8F\L	.	8r
8A\J	6	16ff\LL
.	5-r	16ee-X\JJ
=13	=13	=13
8B-y\L	.	8dd\L
8BB-y\J	.	16ee-X\L
.	.	16ff\JJ
8r	.	8b-y\L
8B-y\	.	16gg\L
.	.	16ff\JJ
8c\L	-	8ee-X\L
8C\J	.	16ff\L
.	.	16gg\JJ
8r	.	8cc\L
8c\	6 -	16aa\L
.	.	16gg\JJ
!!LO:LB:g=original
=14	=14	=14
8d\L	.	8ff\L
8D\J	.	16gg\L
.	.	16aa\JJ
8r	.	8dd\L
8D\	6	(16bb-y\L
.	.	16aa\JJ
4E-X\	6 5	16gg\LL
.	.	16ff\
.	.	16ee-X\
.	.	16dd\JJ)
4F\	5 4	8.cc\LT
.	X 3	.
.	.	16b-y\Jk
=15	=15	=15
8BB-y\L	.	4b-y\
16B-y\L	.	.
16c\JJ	.	.
8d\L	.	4r
8c\J	.	.
4.Bn\	6	8r
.	.	8dd\
.	.	8.gg\L
8BBn/	5	.
.	.	16ff\Jk
=16	=16	=16
8C\L	5 4	8ee/L
.	X 3	.
16c\L	.	8c/J
16d\JJ	.	.
8e\L	.	4r
8d\J	.	.
4.c#X\	6	8r
.	.	8ee\
.	.	8.aa\L
8C#X/	5	.
.	.	16gg\Jk
=17	=17	=17
4D\	#	8ff#X/L
.	.	8d/J
8r	.	8.bb-y\L
8D\	6 4	.
.	.	16aa\Jk
4E-X\	.	8gg/L
.	.	8G/J
8r	.	[4ccc\
8En\	6	.
!!LO:LB:g=original
=18	=18	=18
4F#X\	5	8ccc\L]
.	.	8dd\J
8r	.	[4bb-y\
8G\	.	.
8c\L	-	8bb-y\L]
16d\L	.	16aa\L
16e-X\JJ	.	16gg\JJ
8d\L	4	8.ff#X\Lt
8D\J	#	.
.	.	16gg\Jk
=19	=19	=19
8G\L	.	8gg\L
16B-y\L	.	8g\J
16A\JJ	.	.
[4G\	6-r	8ee-X\L
.	.	16cc\L
.	.	16b-y\JJ
8G\L]	4 2	8a/L
16F\L	.	8A/J
16En\JJ	.	.
[4F\	6	8dd\L
.	.	16b-y\L
.	.	16a\JJ
=20	=20	=20
8F\L]	4 2	8g/L
16E-X\L	.	8G/J
16D\JJ	.	.
4E-X\	6	8cc/L
.	.	16a/L
.	.	16g/JJ
4D\	#	8f#X/L
.	.	8d/J
8r	.	[4cc\
8e-X\	6	.
=21	=21	=21
8F#X\L	6 5	16cc\LL]
.	.	16dd\
8G\J	.	16b-y\
.	.	16cc\JJ
8d\L	5 4	8.a/Lt
8D\J	#	.
.	.	16g/Jk
4.GG/;	.	4.g/;
=:|!	=:|!	=:|!
*-	*-	*-
!!!SMS: RV 27 / Estienne Roger, Amsterdam [facs.]
!!!ENC: Fran Bennion; rev. E Correia (4/21)
!!!END: 2004/11/12
!!!ONB: Converted from MuseData with musedata2hum on Sat May 11 12:07:51 2024
!!!YEM: (C) 2004, 2004 Center for Computer Assisted Research in the Humanities.
!!!system-decoration: [(s1,s2)]
!!!URL-info: https://wiki.ccarh.org/wiki/MuseData:_Antonio_Vivaldi#Op._2:_Sonate_a_violino_e_basso_per_il_cembalo
!!!URL-pdf: https://pdf.musedata.org/vivaldi-op02-no01.pdf#page=1 MuseData edition
!!!URL-pdf: http://conquest.imslp.info/files/imglnks/usimg/b/b7/IMSLP99075-PMLP183164-Vivaldi_-_Sonatas_Op2.pdf#page=2 Estienne Roger Amsterdam: Estienne Roger, No.2, n.d.[1711].
!!!URL-youtube: https://www.youtube.com/watch?v=SiijZmW9jKM&t=1963s L'Arte dell'Arco
!!!title: @{OTL}, mov. @{OMV}
!!!filter-chint: chint -mid
!!!EEV: 2024/05/11
!!!source-file: https://bitbucket.org/musedata/vivaldi/src/master/roger/op2/no01/stage2/01/01
!!!source-file: https://bitbucket.org/musedata/vivaldi/src/master/roger/op2/no01/stage2/01/02
